Sites/Hedoes/app/img/dest/advantages/image(3).svg

<svg width="86" height="86" viewBox="0 0 86 86" fill="none" xmlns="http://www.w3.org/2000/svg">
<g clip-path="url(#clip0)">
<path d="M49.7188 38.9686C48.7916 38.9686 48.0391 39.7211 48.0391 40.6483C48.0391 41.5755 48.7916 42.328 49.7188 42.328C50.6459 42.328 51.3984 41.5755 51.3984 40.6483C51.3984 39.7211 50.6459 38.9686 49.7188 38.9686Z" fill="#343634"/>
<path d="M43 28.8905C42.0728 28.8905 41.3203 29.643 41.3203 30.5702C41.3203 31.4974 42.0728 32.2499 43 32.2499C43.9272 32.2499 44.6797 31.4974 44.6797 30.5702C44.6797 29.643 43.9272 28.8905 43 28.8905Z" fill="#343634"/>
<path d="M22.8438 72.5624C21.9166 72.5624 21.1641 73.3149 21.1641 74.2421C21.1641 75.1693 21.9166 75.9218 22.8438 75.9218C23.7709 75.9218 24.5234 75.1693 24.5234 74.2421C24.5234 73.3149 23.7709 72.5624 22.8438 72.5624Z" fill="#343634"/>
<path d="M76.3278 68.477L54.7579 30.1303V9.7901C56.7132 9.0969 58.1173 7.22892 58.1173 5.03894C58.1173 2.2604 55.8568 -0.00012207 53.0782 -0.00012207H32.922C30.1434 -0.00012207 27.8829 2.2604 27.8829 5.03894C27.8829 7.22892 29.287 9.0969 31.2423 9.7901V30.1303L9.67241 68.477C7.60169 72.1582 7.63847 76.5327 9.7705 80.1783C11.9024 83.8235 15.6964 85.9999 19.9195 85.9999H66.0807C70.3038 85.9999 74.0977 83.8235 76.2297 80.1783C78.3617 76.5327 78.3985 72.1582 76.3278 68.477ZM34.386 31.3936C34.5274 31.1423 34.6017 30.8586 34.6017 30.5702V10.078H36.2813C37.2089 10.078 37.961 9.32584 37.961 8.39832C37.961 7.47079 37.2089 6.71863 36.2813 6.71863H32.922C31.9958 6.71863 31.2423 5.96512 31.2423 5.03894C31.2423 4.11276 31.9958 3.35925 32.922 3.35925H53.0782C54.0044 3.35925 54.7579 4.11276 54.7579 5.03894C54.7579 5.96512 54.0044 6.71863 53.0782 6.71863H49.7188C48.7913 6.71863 48.0392 7.47079 48.0392 8.39832C48.0392 9.32584 48.7913 10.078 49.7188 10.078H51.3985V30.5702C51.3985 30.8588 51.4728 31.1421 51.6142 31.3936L61.5145 48.9945C55.4684 48.5049 49.4434 49.7277 43.9078 52.5941C36.7916 56.2766 28.8697 56.925 21.4 54.4799L34.386 31.3936ZM73.3297 78.4823C71.8071 81.086 69.0971 82.6405 66.0807 82.6405H19.9195C16.9031 82.6405 14.1931 81.086 12.6705 78.4823C11.1475 75.8783 11.1211 72.7535 12.6004 70.1238L19.7237 57.4603C23.1798 58.6672 26.7515 59.2764 30.3791 59.2764C30.9161 59.2764 31.4544 59.2631 31.9938 59.2364C36.6809 59.0043 41.2089 57.7732 45.4521 55.5774C51.1281 52.6386 57.371 51.6241 63.5563 52.6243L73.3999 70.1238C74.8791 72.7535 74.8529 75.8783 73.3297 78.4823Z" fill="#343634"/>
<path d="M36.2812 38.9686C33.5027 38.9686 31.2422 41.2292 31.2422 44.0077C31.2422 46.7862 33.5027 49.0468 36.2812 49.0468C39.0598 49.0468 41.3203 46.7862 41.3203 44.0077C41.3203 41.2292 39.0598 38.9686 36.2812 38.9686ZM36.2812 45.6874C35.3551 45.6874 34.6016 44.9339 34.6016 44.0077C34.6016 43.0815 35.3551 42.328 36.2812 42.328C37.2074 42.328 37.9609 43.0815 37.9609 44.0077C37.9609 44.9339 37.2074 45.6874 36.2812 45.6874Z" fill="#343634"/>
<path d="M63.1562 72.5624H29.5625C28.635 72.5624 27.8828 73.3145 27.8828 74.2421C27.8828 75.1696 28.635 75.9218 29.5625 75.9218H63.1562C64.0838 75.9218 64.8359 75.1696 64.8359 74.2421C64.8359 73.3145 64.0838 72.5624 63.1562 72.5624Z" fill="#343634"/>
</g>
<defs>
<clipPath id="clip0">
<rect width="86" height="86" fill="white" transform="translate(0 -0.00012207)"/>
</clipPath>
</defs>
</svg>

<svg width="86" height="86" fill="none" xmlns="http://www.w3.org/2000/svg"><g clip-path="url(#clip0)" fill="#343634"><path d="M49.719 38.969a1.68 1.68 0 10.001 3.36 1.68 1.68 0 00-.001-3.36zM43 28.89a1.68 1.68 0 10.001 3.361 1.68 1.68 0 00-.001-3.36zM22.844 72.562a1.68 1.68 0 10.001 3.361 1.68 1.68 0 00-.001-3.36z"/><path d="M76.328 68.477L54.758 30.13V9.79a5.048 5.048 0 003.36-4.751 5.046 5.046 0 00-5.04-5.04H32.922a5.045 5.045 0 00-5.04 5.04 5.048 5.048 0 003.36 4.751v20.34L9.672 68.477c-2.07 3.681-2.034 8.056.098 11.701C11.902 83.823 15.697 86 19.92 86h46.16c4.224 0 8.018-2.177 10.15-5.822 2.132-3.645 2.168-8.02.098-11.701zM34.386 31.394a1.68 1.68 0 00.216-.824V10.078h1.68a1.68 1.68 0 000-3.36h-3.36c-.926 0-1.68-.753-1.68-1.68 0-.925.754-1.679 1.68-1.679h20.156c.926 0 1.68.754 1.68 1.68 0 .926-.754 1.68-1.68 1.68h-3.36a1.68 1.68 0 000 3.359h1.68V30.57c0 .289.075.572.216.824l9.9 17.6c-6.046-.49-12.07.734-17.606 3.6-7.116 3.683-15.038 4.331-22.508 1.886l12.986-23.086zM73.33 78.482a8.318 8.318 0 01-7.25 4.159H19.92a8.318 8.318 0 01-7.25-4.159 8.32 8.32 0 01-.07-8.358l7.124-12.664a32.188 32.188 0 0012.27 1.776c4.687-.232 9.215-1.463 13.458-3.659 5.676-2.938 11.919-3.953 18.104-2.953l9.844 17.5a8.32 8.32 0 01-.07 8.358z"/><path d="M36.281 38.969a5.045 5.045 0 00-5.039 5.039 5.045 5.045 0 005.04 5.039 5.044 5.044 0 005.038-5.04 5.044 5.044 0 00-5.039-5.038zm0 6.718c-.926 0-1.68-.753-1.68-1.68 0-.925.754-1.679 1.68-1.679.926 0 1.68.753 1.68 1.68 0 .926-.754 1.68-1.68 1.68zm26.875 26.875H29.563a1.68 1.68 0 000 3.36h33.593a1.68 1.68 0 000-3.36z"/></g><defs><clipPath id="clip0"><path fill="#fff" d="M0 0h86v86H0z"/></clipPath></defs></svg>
